icons/i.svg

<svg width="48" height="48" viewBox="0 0 48 48" fill="none" xmlns="http://www.w3.org/2000/svg">
<path fill-rule="evenodd" clip-rule="evenodd" d="M13 12C13 10.3431 14.3431 9 16 9L32 9C33.6569 9 35 10.3431 35 12C35 13.6569 33.6569 15 32 15H27L27 33H32C33.6569 33 35 34.3431 35 36C35 37.6569 33.6569 39 32 39H16C14.3431 39 13 37.6569 13 36C13 34.3431 14.3431 33 16 33H21L21 15L16 15C14.3431 15 13 13.6569 13 12ZM16 11C15.4477 11 15 11.4477 15 12C15 12.5523 15.4477 13 16 13L23 13L23 35H16C15.4477 35 15 35.4477 15 36C15 36.5523 15.4477 37 16 37H32C32.5523 37 33 36.5523 33 36C33 35.4477 32.5523 35 32 35H25L25 13H32C32.5523 13 33 12.5523 33 12C33 11.4477 32.5523 11 32 11L16 11Z" fill="black"/>
</svg>

<svg
  xmlns="http://www.w3.org/2000/svg"
  width="24"
  height="24"
  viewBox="0 0 24 24"
  fill="none"
  stroke="currentColor"
  stroke-width="2"
  stroke-linecap="round"
  stroke-linejoin="round"
>
  <path
    fill-rule="evenodd"
    d="M13 12a3 3 0 0 1 3-3h16a3 3 0 1 1 0 6h-5v18h5a3 3 0 1 1 0 6H16a3 3 0 1 1 0-6h5V15h-5a3 3 0 0 1-3-3m3-1a1 1 0 1 0 0 2h7v22h-7a1 1 0 1 0 0 2h16a1 1 0 1 0 0-2h-7V13h7a1 1 0 1 0 0-2z"
    clip-rule="evenodd"
  />
</svg>
